X:1
T:Cambridge (Randall), 86.86.66
T:Cambridge (Randall), 86.86.66
T:John Randall, 1790
T:Public Domain Courtesy of the Cyber Hymnal™
C:John Randall, 1790
Z:Public Domain
Z:Courtesy of the Cyber Hymnal™
%%score ( 1 2 ) ( 3 4 )
L:1/8
Q:1/4=150
M:2/2
K:C
V:1 treble 
V:2 treble 
V:3 bass 
V:4 bass 
V:1
 [Ec]4 [Ge]2 [Ge]2 | [Gd]4 c4 | [Af]4 [ce]4 | [Bd]8 | [Gc]4 [Ge]2 (gd) | [Ac]4 [GB]4 | [Gc]8 | %7
 [Gc]4 [Ge]2 [Ge]2 | [Bd]4 c4 | [Af]4 [ce]4 | [Bd]8 | [Gc]4 [Gd]2 [Gc]2 | [GB]2 [FA]2 G4- | %13
 G4 [Ge]4 | [Af]2 [Ge]2 [Fd]2 [Ec]2 | [Gd]2 [Bd]2 [ce]2 (fd) | [Ac]4 [GB]4 | [Gc]8 |] %18
V:2
 x8 | x4 c4 | x8 | x8 | x6 F2 | x8 | x8 | x8 | x4 c4 | x8 | x8 | x8 | x4 G4- | G4 x4 | x8 | x6 c2 | %16
 x8 | x8 |] %18
V:3
 [C,G,]4 [C,C]2 [C,C]2 | [G,B,]4 [A,E]4 | [F,C]4 [C,A,]4 | G,8 | [CE]4 C2 (CD) | [F,C]4 [G,D]4 | %6
 [C,E]8 | [CE]4 [CG]2 [CG]2 | [G,D]4 [A,E]4 | [F,C]4 [C,C]4 | [G,D]8 | [CE]4 [B,F]2 [CE]2 | %12
 D2 [D,C]2 [G,D]4- | [G,D]4 C4 | D2 C2 B,2 A,2 | G,2 G,2 C2 [CE]2 | [F,C]4 [G,D]4 | [C,E]8 |] %18
V:4
 x8 | x8 | x8 | G,8 | x4 C2 A,2 | x8 | x8 | x8 | x8 | x8 | x8 | x8 | D2 x6 | x4 C4 | %14
 D2 C2 B,2 A,2 | G,2 G,2 C2 x2 | x8 | x8 |] %18

